church.svg

<svg fill="currentColor" viewBox="0 0 24 24"><path d="M18 12.22V9l-5-2.5V5h2V3h-2V1h-2v2H9v2h2v1.5L6 9v3.22L2 14v8h8v-3c0-1.1.9-2 2-2s2 .9 2 2v3h8v-8zm-6 1.28c-.83 0-1.5-.67-1.5-1.5s.67-1.5 1.5-1.5 1.5.67 1.5 1.5-.67 1.5-1.5 1.5"/></svg>

<svg  viewBox="0 0 24 24" fill="currentColor"><path  d="M18 12.22V9L13 6.5V5H15V3H13V1H11V3H9V5H11V6.5L6 9V12.22L2 14V22H10V19C10 17.9 10.9 17 12 17S14 17.9 14 19V22H22V14L18 12.22M12 13.5C11.17 13.5 10.5 12.83 10.5 12S11.17 10.5 12 10.5 13.5 11.17 13.5 12 12.83 13.5 12 13.5Z"/></svg>
